X: 2126
T: Öyle Bir Âfet-i Yektâ-yı...
C: Aleko Bacanos
O: Turkey
F: http://compmusic.upf.edu/node/140
N: saba--sarki--devrihindi--oyle_bir--aleko_bacanos
N: makam= saba
N: form= sarki
N: usul= devrihindi = 7/4
M: 7/4
L: 1/16
K: C _2/4B _3/4d  
Q: 1/4=78
%%MIDI tuningsystem comma53
c4 d4 c4 B6cB A8  | c2d2 e2f2 g2_7/8a2 g3f e2f2 g2{_1/4b}ag g4  | 
w:  ARANAĞME  |   | 
c'4 _1/4b4 _7/8a4 g4 f4 e4 d2c2  | \
w:   | 
c2de d4 c4 B6cB A8  | c4 d4 c4 B6cB A8  | 
w:   |  ARANAĞME  | 
c2d2 e2f2 g2_7/8a2 g3f e2f2 g2{_1/4b}ag g4  | \
w:   | 
c'4 _1/4b4 _7/8a4 g4 f4 e4 d2c2  | 
w:   | 
c2de d4 c4 B6cB A8  | c4 d3c BAB2 c3B A3G (3c2d2B2 c4  | 
w:   |  Öy *  *  le  *  *  bir  *  *  *  â  | 
c2_7/8a2 (3g2f2g2 (3f2e2f2 (3e2d2e2 d2c2 d6c2  | \
w:  fet_ *  *  *  *  i  *  *  yek *  *  *  *  tâ  | 
c4 g4 g4 g3f g2c'2 c'_1/4b_7/8ag fedc  | 
w:  yı  *  e mel *  *  *  sin   | 
c2de d2c2 cBAG c8 c2BA A4  | c4 d3c BAB2 c3B A3G (3c2d2B2 c4  | 
w:  me *  *  *  *  le *  *  *  ğim   SAZ  |  Öy *  *  le  *  *  bir  *  *  *  â  | 
c2_7/8a2 (3g2f2g2 (3f2e2f2 (3e2d2e2 d2c2 d6c2  | \
w:  fet_ *  *  *  *  i  *  *  yek *  *  *  *  tâ  | 
c4 g4 g4 g3f g2c'2 c'_1/4b_7/8ag fedc  | 
w:  yı  *  e mel *  *  *  sin   | 
c2de d2c2 cBAG c8 cBAG c4  | c2de dcd2 d4 d2{e}dc c2z2 c2{d}cB B4  | 
w:  me *  *  *  *  le *  *  *  ğim   SAZ  |  Ba *  *  *  *  *  ka mam  *  *  *  *  göz  | 
c3B A2B2 G4 c2{d}cB A2B2 c2d2 c2B2  | \
w:  le *  *  *  ri ne  *  *  *  *  *  çün  | 
c2de dcd2 d4 d2{e}dc c2z2 c2{d}cB B2z2  | 
w:  ki  *  *  *  *  *  e rir  *  *  *  *  göz  | 
(3c2B2A2 A4 A4 A8 cBAG c4  | c2de dcd2 d4 d2{e}dc c2z2 c2{d}cB B4  | 
w:  be *  *  *  be ğim   SAZ  |  Ba *  *  *  *  *  ka mam  *  *  *  *  göz  | 
c3B A2B2 G4 c2{d}cB A2B2 c2d2 c2B2  | \
w:  le *  *  *  ri ne  *  *  *  *  *  çün  | 
c2de dcd2 d4 d2{e}dc c2z2 c2{d}cB B2z2  | 
w:  ki  *  *  *  *  *  e rir  *  *  *  *  göz  | 
(3c2B2A2 A4 A4 A8 c2BA A4  | (3c2d2B2 c4 g2_7/8a2 g3f e2f2 g2{_1/4b}ag g4  | 
w:  be *  *  *  be ğim   SAZ  |  SAZ  | 
(3c2d2B2 c4 g2_7/8a2 g3f e2f2 g2{_1/4b}ag g4  | \
w:  A *  *  *  kı *  tan  *  *  *  göz  | 
g2_7/8a2 _1/4b2c'2 b2a2 g2f2 efga gfed c4  | 
w:  ya *  *  *  şı *  mı  *  *  *  *  *  pâ  | 
c2d2 e2f2 g2_7/8a2 g3f e2f2 g6f2  | \
w:  yi *  *  *  ne  *  bir  *  *  *  sec  | 
g2_7/8a_1/4b a2g2 f2e2 g8 ba2g a4  | 
w:  de *  *  *  *  de *  rim   SAZ  | 
_7/8a8 a4 aga_1/4b g2f2 fefg e2d2  | \
w:  A kı tan  *  *  *  *  *  göz  | 
c2c'2 (3_1/4b2_7/8a2b2 (3a2g2a2 g2f2 efga gfed c4  | 
w:  ya *  *  *  *  şı *  *  mı  *  *  *  *  *  pâ  | 
c4 d4 e4 f2{g}fe f4 g2{_7/8a}gf g4  | \
w:  yi *  ne  bir  *  *  *  *  sec  | 
c2de d2c2 cBAG c8 cBAG c4  | 
w:  de *  *  *  *  de *  *  *  rim   SAZ  | 
c2de dcd2 d4 d2{e}dc c2z2 c2{d}cB B4  | \
w:  Ba *  *  *  *  *  ka mam  *  *  *  *  göz  | 
c3B A2B2 G4 c2{d}cB A2B2 c2d2 c2B2  | 
w:  le *  *  *  ri ne  *  *  *  *  *  çün  | 
c2de dcd2 d4 d2{e}dc c2z2 c2{d}cB B2z2  | \
w:  ki  *  *  *  *  *  e rir  *  *  *  *  göz  | 
(3c2B2A2 A4 A4 A8 cBAG c4  | 
w:  be *  *  *  be ğim   SAZ  | 
c2de dcd2 d4 d2{e}dc c2z2 c2{d}cB B4  | \
w:  Ba *  *  *  *  *  ka mam  *  *  *  *  göz  | 
c3B A2B2 G4 c2{d}cB A2B2 c2d2 c2B2  | 
w:  le *  *  *  ri ne  *  *  *  *  *  çün  | 
c2de dcd2 d4 d2{e}dc c2z2 c2{d}cB B2z2  | \
w:  ki  *  *  *  *  *  e rir  *  *  *  *  göz  | 
(3c2B2A2 A4 A4 A8 c2BA A4  | 
w:  be *  *  *  be ğim   SAZ  | 
|


